X:71
T:Dogs among the Bushes
Z: id:dc-reel-64
M:C
L:1/8
K:G Major
BGG2 DGG2|BGG2 cedc|BGG2 DGG2|A=FF2 =fdcA|!
BGG2 DGG2|BGG2 cedc|[1 B2G=F DEFG|A=FF2 =fdcA:|[2 BABc dgfd|cAFA dBcA|]!
dggf gagf|dgg2 bgag|d=ffe fgfe|d=ff2 afgf|!
dggf gagf|dgg2 agg2|bgg2 afde|fgag fdcA:|!

